X:22
T:Sugghugg
R:schottis
C:Olov Johansson
Z:id:hn-schottis-22
M:C|
K:Gm
G>Bd2 g2-g>g|=f2d2 g2-g>d|d>_ed>c B>AB>d|c2A2 =F4|
G>Bd2 g2-g>g|^f>df<a g2-g>d|d>_ed>c B2G2|A2F2 G4:|
|:G2d2 g2-g>g|^f>ga<f g4|d'2=b2 g>ab>g|a2d'2 d4|
G2d2 g2-g>g|^f>ga<f g4|D2=F2 G2A>B|A2F2 G4:|
